X:32
T:Virgin's Wish. JJo8.032, The
B:J.Johnson Choice Collection Vol 8 1758
Z:vmp.Simon Wilson 2013 www.village-music-project.org.uk
M:6/8
L:1/8
Q:3/8=120
K:C
|:G|c3ece|g3e3|c2ed2c|Bdc BAG|c3eceg3e3|fga dg^f|g3-g2:|
|:g|g3efg|f3def|egf edc|Bdc BAG|c3ABc|B3GAB|cde fdB|c3-c2:|
